!!!OTL: VERLASSEN HAB ICH DER HEIMATH ORT
!!!ARE: Europa, Mitteleuropa, Deutschland
!!!SCT: E1377
!!!YEM: Copyright 1995, estate of Helmut Schaffrath.
**kern
*ICvox
*Ivox
*M2/4
*k[f#]
*G:
{8d
=1
4b
8a
8a
=2
4g
8f#}
{8d
=3
8g
8g
16b
16a
16g
16a
=4
4b
8r}
{8d
=5
4b
8a
8a
=6
4g
8f#}
{8d
=7
8g
8g
16b
16a
16g
16a
=8
4b
8r}
{16g
16a
=9
8b
8b
8cc
8b
=10
8b
8a
8a}
{8a
=11
8g
8g
8a
8g
=12
8g
8f#
8f#}
{16e
16f#
=13
8g
8g
8a
8a
=14
4b
8cc}
{8b
=15
2a
=16
4g
8r}
==
!!!AGN: Staende -, Soldaten -, Kriegs - Lied
!!!ONB: ESAC (Essen Associative Code) Database: ERK3
!!!AMT: simple duple
!!!AIN: vox
!!!EED: Helmut Schaffrath
!!!EEV: 1.0
*-
